X: 7612
T: Coillte Feannaid, The
R: reel
M: 4/4
K: Dmajor
FBAF GFEd|cdec dBAG|F2AF DFAd|BGFG E2DG|
FG(3ABA GFEd|cdec dBAG|F2AF DFAd|BGFG E2Dg|
|:fd(3ddd gfeg|fded BeAg|fd(3ddd gfed|cABc dfag|
fdfa gfeg|fded BdAG|F2AF DFAd|1 BGFG E2Dg:|2 BGFG E2DG||

